!!!!SEGMENT: pl-lzu--m-15111--001-008_noskowski-zygmunt--spiewnik-dla-dzieci-op-34-8-choinka-w-lesie.krn
!!!cenid: 18xx:4705
!!!COM: Noskowski, Zygmunt
!!!COM-rismID: pe106604
!!!CDT: 1846/05/02-1909/07/23
!!!CNT: Polish
!!!GTL: Śpiewnik dla dzieci, op. 34
!!!OTL: 8. Choinka w lesie
!!!OMV: 008
!!!PDT: 1890
!!!AGN: Secular; Song; Children
!!!YEC: Copyright 2022 Narodowy Instytut Fryderyka Chopina (https://polishscores.org)
!!!YEM: License CC-BY-4.0 (https://creativecommons.org/licenses/by/4.0)
!!!SMS-siglum: PL-LŹu
!!!SMS-shelfmark: M 15111
!!!SMS-variant:
!!!SMS-altvar:
!!!SMS-shelfwork: 001-008 G
!!!NIFC-rismSourceID: 1001234040
!!!NIFC-rismChildID: 1001234040
!!!NIFC-islandoraID: pl-lzu:5455
!!!URL-pdf-islandora: https://repozytorium.nifc.pl/islandora/object/pl-lzu%3A5455/datastream/PDF/view
!!!URL-scan: https://polish.musicsources.pl/pl/lokalizacje/galeria/druki-muzyczne/23228/14 @EN{Scan on Polish Music Sources Website} @PL{Skany w portalu Dziedzictwo Muzyki Polskiej w otwartym dostępie}
!!!IIIF:
!!!ONB-nifc:
!!!AIN: 2 piano 1 vox
!!!key: d
!!!OMD: Moderato.
**kern	**kern	**dynam	**kern	**text	**dynam
*part3	*part2	*part2	*part1	*part1	*part1
*staff2	*staff2	*staff2,3	*staff1	*staff1	*staff1
*I"[Piano]	*I"[Piano]	*	*I"[Voice]	*	*
*I'pf	*I'pf	*	*I'V	*	*
*Ipiano	*Ipiano	*	*Ivox	*	*
*ICklav	*ICklav	*	*ICvox	*	*
*IGacomp	*IGacopm	*	*IGsolo	*	*
*clefF4	*clefG2	*	*clefG2	*	*
*k[b-]	*k[b-]	*	*k[b-]	*	*
*d:	*d:	*	*d:	*	*
*M4/4	*M4/4	*	*M4/4	*	*
*met(c)	*met(c)	*	*met(c)	*	*
=1	=1	=1	=1	=1	=1
!	!LO:TX:a:i:t=Umiarkowanie.	!	!	!	!
2.DD/ 2.D	2.A/ 2.d 2.f 2.a	p	2r	.	.
.	.	.	4r	.	p
!	!	!	!LO:TX:a:i:t=Jeden głos.	!	!
(4A\	(4a/	.	4a/	A	.
=2	=2	=2	=2	=2	=2
4d\	4dd\	.	4dd\	kto	.
8c\L	8cc\L	.	8cc\	tę	.
8A\J	8a\J	.	8a/	cho-	.
4B-\	4b-/	.	4b-/	-in-	.
4G\)	4g/)	.	4g,/	-kę	.
=3	=3	=3	=3	=3	=3
(8F\L	(8f/L	.	8f/	Za-	.
8G\	8g/	.	8g/	-siał	.
8A\	8a/	.	8a/	w ciem-	.
8E\J	8e/J	.	8e/	-nym	.
4F\	4f/	.	4f/	le-	.
4D;\)	4d;/)	.	4d;/	-sie?	.
!!LO:LB:g=original
=4	=4	=4	=4	=4	=4
*	*	*	*^	*	*
!	!LO:TX:c:i:t=leggiero	!LO:DY:rj	!LO:TX:a:i:t=Chór.	!	!	!
8B-\L 8c	8e/L	p	8e/	8e\	Za-	.
8B-\ 8c	8d/ 8f	.	8d/ 8f	8ryy	-siał	.
8B-\ 8c	8e/ 8g	.	8e/ 8g	4ryy	ci	.
8B-\J 8c	8e/J 8a	.	8c/ 8a	.	ją	.
8A\L 8c	8f/L	<	8c/ 8f	2ryy	ten	<
8G\ 8c	8e/	.	8c/ 8e	.	wia-	.
8A\ 8c	8f/	.	8c/ 8f	.	-te-	.
8F\J 8c	8f/J 8a	[	8f,/ 8a	.	-rek	[
=5	=5	=5	=5	=5	=5	=5
8D\L 8c	8a/L 8cc	.	8a\ 8cc	4.ryy	Co	.
8D\J 8c	8a/J 8cc	>	8a\ 8cc	.	na-	.
8E\L 8c	8g/L 8b-	.	8g/ 8b-	.	-sion-	.
8C\J 8B-	(16e/L 16a	.	16a/LL	8e\	-ka	.
.	16g/JJ)	]	16g/JJ	.	.	.
4F\ 4A	4f/	.	4f/	4f\	nie-	.
8F;\ 8A	8c;/ 8f	.	8f;/	8f\	-sie.	.
*	*	*	*v	*v	*	*
!!LO:PB:g=original
=||	=||	=||	=||	=||	=||
!	!	!	!LO:TX:a:i:t=Jeden głos.	!	!LO:DY:rj
8A\	8a/	mf	8a/	A	mf
!	!LO:TX:c:i:rj:t=legato	!	!	!	!
=6	=6	=6	=6	=6	=6
4D\ 4A	4f/ 4dd	.	4dd\	kto	.
8E\L 8G	8g/L 8cc	.	8cc\	tę	.
8F\J 8c	8f/J 8a	.	8a/	cho-	.
4D\ 4B-	4f/ 4b-	.	4b-/	-in-	.
4E\ 4B-	4c/ 4g	.	4g,/	-kę	.
=7	=7	=7	=7	=7	=7
8F\L 8A	8c/L 8f	.	8f/	O-	.
8E\ 8G	8c/ 8g	.	8g/	-grzał	.
8D\ 8F	8f/ 8a	.	8a/	w ciem-	.
8C\J 8A	8e/J	.	8e/	-nym	.
4BB-\ 4F	4d/ 4f	.	4f/	bo-	.
4D;\ 4F	4A;/ 4d	.	4d;/	-ru?	.
!!LO:LB:g=original
=8	=8	=8	=8	=8	=8
!	!	!LO:DY:rj	!LO:TX:a:i:t=Chór.	!	!
8C\L 8G	8c/L 8e	p	8c/ 8e	To	.
8C\ 8A	8d/ 8f	.	8d/ 8f	o-	.
8C\ 8B-	8e/ 8g	.	8e/ 8g	-grza-	.
8C\J 8c	8e/J 8a	<	8e/ 8a	-ło	<
8D\L 8A	8d/L 8f	.	8d/ 8f	ją	.
8D\ 8G	8d/ 8e	.	8d/ 8e	sło-	.
8D\ 8A	8d/ 8f	[	8d/ 8f	-ne-	[
8D\J 8F	8d/J 8a	.	8d,/ 8a	-czko	.
=9	=9	=9	=9	=9	=9
*	*	*	*^	*	*
!	!	!LO:DY:rj	!	!	!	!
8AA\L 8A	8e/L 8cc	mf	8e/ 8cc	4.ryy	Z nie-	.
8AA\J 8A	8e/J 8cc	.	8e/ 8cc	.	-bie-	>
8BB-\L 8F	8d/L 8b-	>	8d/ 8b-	.	-skie-	.
8C\J 8B-	(16e/L 16a	.	16a/LL	8e\	-go	.
.	16g/JJ)	.	16g/JJ	.	.	.
4F\ 4A	4f/	.	4f/	4f\	dwo-	.
8FF;/ 8C 8F	8A;/ 8c 8f	]	8f;/	8f\	-ru.	]
*	*	*	*v	*v	*	*
!!LO:LB:g=original
=||	=||	=||	=||	=||	=||
!	!	!LO:DY:rj	!LO:TX:a:i:t=Jeden głos.	!	!LO:DY:rj
8r	8A/ 8a	f	8a/	A	f
=10	=10	=10	=10	=10	=10
!	!LO:TX:b:i:t=gravimente	!	!	!	!
4GGG/ 4GG	4d/ 4g 4b- 4dd	.	4dd\	kto	.
8AAA/L 8AA	8c/L 8e 8a 8cc	.	8cc\	tę	.
8CC/J 8C	8A/J 8e 8a	.	8a/	cho-	.
4BBB-/ 4BB-	4B-/ 4d 4f 4b-	.	4b-\	-in-	.
4CC/ 4C	4G/ 4c 4e 4g	.	4g,/	-kę	.
=11	=11	=11	=11	=11	=11
8DD/L 8D	8F/L 8A 8d 8f	.	8f/	Po-	.
8BBB-/ 8BB-	8G/ 8d 8g	.	8g/	-ił	.
8AAA/ 8AA	8A/ 8c 8e 8a	.	8a/	w ciem-	.
8CC/J 8C	8E/J 8G 8c 8e	.	8e/	-nym	.
4FFF/ 4FF	4F/ 4A 4c 4f	.	4f/	ga-	.
4BBB-;<\ 4BB-	4D<;/ 4F< 4B-< 4d	.	4d;/	-ju?	.
!!LO:PB:g=original
=12	=12	=12	=12	=12	=12
!	!	!LO:DY:rj	!LO:TX:a:i:t=Chór.	!	!LO:DY:rj
8BB-\L 8G	8d/L 8e	p	8d/ 8e	Ja-	p
8BB-\J 8G	8d/ 8f	.	8d/ 8f	-sne	.
8AA/L 8E	8c#X/ 8g	.	8c#X/ 8g	ją	.
8AA/J 8E	8c#/J 8a	.	8c#/ 8a	po-	.
8D\L 8F	8d/L 8f	.	8d/ 8f	-i-	.
8D\ 8B-	8d/ 8e	.	8d/ 8e	-ły	.
8D\ 8A	8d/ 8f	.	8d/ 8f	ro-	.
8D\J 8F	8d/J 8a	.	8d/ 8a	-sy	.
=13	=13	=13	=13	=13	=13
*	*	*	*^	*	*
8E\L 8G	8c/L 8cc	.	8c/ 8cc	4.ryy	I	.
8E\J 8G	8c/J 8cc	.	8c/ 8cc	.	wo-	.
8GG\L 8G	8d/L 8b-	.	8d/ 8b-	.	-da	.
8AA\J 8E	(16c#X/L 16a	.	16a/LL	8c#X\	z ru-	.
.	16g/JJ	.	16g/JJ	.	.	.
4D\ 4F	4d/) 4f	.	4d/ 4f	4ryy	-cza-	.
8DD;/ 8D	8A;/ 8d 8f	.	8d;/ 8f	8ryy	-ju.	.
*	*	*	*v	*v	*	*
!!LO:LB:g=original
=||	=||	=||	=||	=||	=||
!	!	!	!LO:TX:a:i:t=Jeden głos.	!	!LO:DY:rj
8r	8A/ 8a	pp	8a/	A	pp
=14	=14	=14	=14	=14	=14
4BBB-/ 4BB-	4d/ 4f 4b- 4dd	.	4dd\	kto	.
8CC/L 8C	8c/L 8e-X 8g 8cc	.	8cc\	tę	.
8EE-X/J 8E-X	8c/J 8f 8a	.	8a/	cho-	.
4DD-X/ 4D-X	4B-/ 4f 4b-	.	4b-/	-in-	.
4CC/ 4C	4B-/ 4en 4g	.	4g/	-kę	.
=15	=15	=15	=15	=15	=15
*	*^	*	*	*	*
4.GGG/ 4.GG	8dn/L 8f	8Bn\	.	8f/	Wy-	.
.	8e/ 8g	4B\	.	8g/	-ho-	.
.	8f/ 8a	.	.	8a/	-do-	.
8CC/ 8C	8c/J 8e	8G\	.	8e/	-wał	.
4AAA-X/ 4AA-X	4F/ 4c 4f	2ryy	.	4f/	z ziar-	.
4GGG;/ 4GG	4F;/ 4B 4d	.	.	4d;/	-na?	.
*	*v	*v	*	*	*	*
=16	=16	=16	=16	=16	=16
!	!	!LO:DY:rj	!	!	!
4.CC/ 4.C	8E/L 8c 8e	p	8c/ 8e	Wy-	p
!	!	!	!LO:TX:a:i:t=Chór	!	!
.	8F/ 8d 8f	.	8d/ 8f	-cho-	.
.	8G/ 8e 8g	.	8e/ 8g	-wa-	.
8AAA/ 8AA	8A/J 8f 8a	<	8f/ 8a	-ła	<
4.DD/ 4.D	8F/L 8d 8f	.	8d/ 8f	ją	.
.	8E/ 8c#X 8e	[	8c#X/ 8e	ma-	[
.	8F/ 8d 8f	.	8d/ 8f	-teń-	.
16CCn/LL 16Cn	8A/J 8f 8a	.	8f/ 8a	-ka	.
16BBB-/JJ 16BB-	.	.	.	.	.
!!LO:LB:g=original
=17	=17	=17	=17	=17	=17
*	*	*	*^	*	*
4AAA/ 4AA	8c/L 8a 8cc	.	8a/ 8cc	4.ryy	Zie-	.
.	8c/J 8a 8cc	.	8a/ 8cc	.	-mia	.
8BBB-/L 8BB-	8B-/L 8g 8b-	.	8g/ 8b-	.	na-	.
8CC/J 8C	(16B-/L 16e 16a	.	16a/LL	8e\	-sza	.
.	16g/JJ)	.	16g/JJ	.	.	.
2FF/ 2C	4A/ 4f	.	4f/	4f\	czar-	.
.	4A/ 4f	.	4f,/	4f\	-na!	.
*	*	*	*v	*v	*	*
=18	=18	=18	=18	=18	=18
!	!	!LO:DY:rj	!	!	!LO:DY:rj
4BBB-/ 4BB-	8d/L 8b- 8dd	f	8b-\ 8dd	Wy-	f
.	8d/J 8b- 8dd	.	8b-\ 8dd	-cho-	.
4GGG/ 4GG	8e/L 8cc 8ee	.	8cc\ 8ee	-wa-	.
.	8d/J 8b- 8dd	.	8b-\ 8dd	-ła	.
8AAA/L 8AA	8c/L 8a 8cc	.	8a\ 8cc	ją	.
8FFF/J 8FF	8f/J 8a 8ff	.	8a\ 8ff	ma-	.
8AAA/L 8AA	8e/L 8cc 8ee	.	8cc\ 8ee	-teń-	.
8BBB-/J 8BB-	8d/J 8b- 8dd	.	8b-\ 8dd	-ka	.
!!LO:PB:g=original
=19	=19	=19	=19	=19	=19
4GGG/ 4GG	8c/L 8a 8cc	.	8a/ 8cc	Zie-	.
.	8B-/ 8g 8b-	.	8g/ 8b-	-mia	.
8AAA/L 8AA	8A/ 8f 8a	.	8f/ 8a	na-	.
8BBB-/J 8BB-	8G/J 8e 8g	.	8e,/ 8g	-sza	.
4GG/ 4G	4d/ 4b-	>	((4d/ 4b-	czar-	>
4AA\ 4E 4G	4c#X/ 4a	]	4c#X/)) 4a	.	]
=20	=20	=20	=20	=20	=20
*	*	*	*^	*	*
*ped	*	*	*	*	*	*
!	!	!LO:DY:rj	!	!	!	!LO:DY:rj
2D\ 2F	2A/ 2d	p >	[2d/	[2d\	-na!	p
!	!	!LO:DY:rj	!	!	!	!
4D\ 4A	4f/ 4dd	] pp	4d/]	4d\]	.	.
4D\ 4A	4f/ 4dd	.	4r	4ryy	.	.
*	*	*	*v	*v	*	*
=21	=21	=21	=21	=21	=21
[2D\ [2A	[2f/ [2dd	.	1r	.	.
4D\] 4A]	4f/] 4dd]	.	.	.	.
*Xped	*	*	*	*	*
.	.	.	.	.	.
4r	4r	.	.	.	.
==	==	==	==	==	==
*-	*-	*-	*-	*-	*-
!!!system-decoration: p1{p2}
!!!RDF**kern: > = above
!!!RDF**kern: < = below
!!!ENC: Andrzej Gręziak
!!!END: 2025-03-04
!!!ENC: Marta Lawrence
!!!END: 2025-03-20
